X:19156
T:Xota Vaqueira
T:Jota Vaqueira
R:Xota
C:Tradicional
S:Msica Tradicional Asturiana, (C) Tello & Tito. Asturies, 2001.
S:http://pagina.de/MusTradAst <telloytito@asturies.org>
A:Asturies
Z:Danzas y Bailes I
M:6/8
L:1/8
Q:3/8=144
K:Em
e/e/|: e2 a g2 e|g2 e3 e/f/|e2 d c2 c|[1 f2 e3 e/e/ :|[2 f2 e e2 e/e/|
|e2 a g2 f|g2 e3 e/f/|e2 d c2 B|A3 A3-|
|: A z A ^c2 d|e5 f|e2 d ^c2 e|e3 ^c2 c|
|B z B ^c2 d|e5 f|e2 d ^c2 B|A3 A3 :|A z5|
